X:1602
T:Kitty's Wedding
R:hornpipe
N:"Collected by Kennedy"
B:O'Neill's 1602
Z:Transcribed by Michael Hogan
M:C|
L:1/8
K:D
gfe|d2 Bd A2 FA|"tr"BAFA D2 "tr"ED|B,DA,D DFBF|AADF E2 "tr"fe|
d2 Bd A2 FA|"tr" BAFA D2 "tr"ED|B,DA,D DFBA|FAEA D2 :|
|: fg afed bafd|Adfd edBd|DFAd FAde|fadf e2 fg|
afed bafd|Adfd edBd|DFAd FAdf|eABc d2 :||
